X:10020008
T:Gavotte J5.2   Skelton 15  Em
B:Shepard #15
O:Brittany (Dave Shepherd #15)
Q:3/8=175"     Drone E"
M:12/8
K:Em
L:1/8
|:"Em" E2D E2F G2A "G"B3| B2A "D"F2G "Em" E3E3:|
|:"Em"E2B G2B "Am"c2B A3|"D"F2G AGF "Em"G2A B2G|"C"E2D E2F "G"G2A B3|B2A "D"F2G "Em"E3E3:|

